icons/modern/hot-pepper.svg

<svg width="32" height="32" viewBox="0 0 32 32" fill="none" xmlns="http://www.w3.org/2000/svg">
<path fill-rule="evenodd" clip-rule="evenodd" d="M19.5722 2.10938C20.2141 2.10938 20.7344 2.61468 20.7344 3.16406V7.03338C20.7344 7.58276 20.2141 8.02812 19.5722 8.02812C18.9304 8.02812 18.41 7.58276 18.41 7.03338V3.16406C18.41 2.61468 18.9304 2.10938 19.5722 2.10938Z" fill="url(#paint0_linear_18_30420)"/>
<path fill-rule="evenodd" clip-rule="evenodd" d="M19.5722 2.10938C20.2141 2.10938 20.7344 2.61468 20.7344 3.16406V7.03338C20.7344 7.58276 20.2141 8.02812 19.5722 8.02812C18.9304 8.02812 18.41 7.58276 18.41 7.03338V3.16406C18.41 2.61468 18.9304 2.10938 19.5722 2.10938Z" fill="url(#paint1_radial_18_30420)"/>
<path d="M9.5335 24.34C8.0935 25.42 6.5035 26.12 4.8535 26.47C3.4235 26.77 3.3135 28.77 4.7035 29.23C9.4535 30.79 14.8635 30.08 19.1635 26.85C23.4531 23.5156 25.5487 18.3006 25.2188 13.1406C24.9387 8.69062 20.0835 6.33001 16.5135 9.01001C14.9935 10.15 14.1435 11.98 14.2835 13.87C14.5735 17.8 12.9135 21.8 9.5335 24.34Z" fill="url(#paint2_linear_18_30420)"/>
<path d="M9.5335 24.34C8.0935 25.42 6.5035 26.12 4.8535 26.47C3.4235 26.77 3.3135 28.77 4.7035 29.23C9.4535 30.79 14.8635 30.08 19.1635 26.85C23.4531 23.5156 25.5487 18.3006 25.2188 13.1406C24.9387 8.69062 20.0835 6.33001 16.5135 9.01001C14.9935 10.15 14.1435 11.98 14.2835 13.87C14.5735 17.8 12.9135 21.8 9.5335 24.34Z" fill="url(#paint3_radial_18_30420)"/>
<path d="M9.5335 24.34C8.0935 25.42 6.5035 26.12 4.8535 26.47C3.4235 26.77 3.3135 28.77 4.7035 29.23C9.4535 30.79 14.8635 30.08 19.1635 26.85C23.4531 23.5156 25.5487 18.3006 25.2188 13.1406C24.9387 8.69062 20.0835 6.33001 16.5135 9.01001C14.9935 10.15 14.1435 11.98 14.2835 13.87C14.5735 17.8 12.9135 21.8 9.5335 24.34Z" fill="url(#paint4_linear_18_30420)"/>
<path d="M11.9697 10.03C11.9697 11.1 12.4297 12.13 13.2297 12.85C13.9922 13.4609 15.2541 13.1904 15.9531 12.7266C16.7959 12.1674 17.6378 12.4695 17.9922 12.7266C18.5898 13.1602 20.5416 13.096 21.1406 12.7266C21.7396 12.3571 22.3983 12.3446 23.1328 12.7266C23.9128 13.1322 25.2812 13.4062 25.9397 12.86L25.9497 12.85C26.7497 12.13 27.1484 11.1034 27.1484 10.0234C27.1484 7.26344 25.1328 5.14062 22.2097 5.14062H16.9797C14.0859 5.14062 11.9697 7.27003 11.9697 10.03Z" fill="#94AD47"/>
<path d="M11.9697 10.03C11.9697 11.1 12.4297 12.13 13.2297 12.85C13.9922 13.4609 15.2541 13.1904 15.9531 12.7266C16.7959 12.1674 17.6378 12.4695 17.9922 12.7266C18.5898 13.1602 20.5416 13.096 21.1406 12.7266C21.7396 12.3571 22.3983 12.3446 23.1328 12.7266C23.9128 13.1322 25.2812 13.4062 25.9397 12.86L25.9497 12.85C26.7497 12.13 27.1484 11.1034 27.1484 10.0234C27.1484 7.26344 25.1328 5.14062 22.2097 5.14062H16.9797C14.0859 5.14062 11.9697 7.27003 11.9697 10.03Z" fill="url(#paint5_radial_18_30420)"/>
<path d="M11.9697 10.03C11.9697 11.1 12.4297 12.13 13.2297 12.85C13.9922 13.4609 15.2541 13.1904 15.9531 12.7266C16.7959 12.1674 17.6378 12.4695 17.9922 12.7266C18.5898 13.1602 20.5416 13.096 21.1406 12.7266C21.7396 12.3571 22.3983 12.3446 23.1328 12.7266C23.9128 13.1322 25.2812 13.4062 25.9397 12.86L25.9497 12.85C26.7497 12.13 27.1484 11.1034 27.1484 10.0234C27.1484 7.26344 25.1328 5.14062 22.2097 5.14062H16.9797C14.0859 5.14062 11.9697 7.27003 11.9697 10.03Z" fill="url(#paint6_linear_18_30420)"/>
<g filter="url(#filter0_f_18_30420)">
<path d="M19.0475 7.53532C19.3889 6.06813 23.252 5.21437 24.5098 6.007C26.8142 7.45883 23.1443 9.5986 21.7787 10.2099C20.4131 10.8213 18.6208 9.36929 19.0475 7.53532Z" fill="url(#paint7_radial_18_30420)"/>
</g>
<rect width="32" height="32"/>
<defs>
<filter id="filter0_f_18_30420" x="17.9834" y="4.70447" width="8.26904" height="6.64734" filterUnits="userSpaceOnUse" color-interpolation-filters="sRGB">
<feFlood flood-opacity="0" result="BackgroundImageFix"/>
<feBlend mode="normal" in="SourceGraphic" in2="BackgroundImageFix" result="shape"/>
<feGaussianBlur stdDeviation="0.5" result="effect1_foregroundBlur_18_30420"/>
</filter>
<linearGradient id="paint0_linear_18_30420" x1="18.41" y1="5.06875" x2="20.7344" y2="5.06875" gradientUnits="userSpaceOnUse">
<stop stop-color="#72B730"/>
<stop offset="0.170139" stop-color="#84CB3A"/>
<stop offset="0.340741" stop-color="#88D120"/>
<stop offset="0.637037" stop-color="#9ADF3B"/>
<stop offset="1" stop-color="#8CCD24"/>
</linearGradient>
<radialGradient id="paint1_radial_18_30420" cx="0" cy="0" r="1" gradientUnits="userSpaceOnUse" gradientTransform="translate(19.875 2.84375) rotate(94.9697) scale(0.721462 0.681439)">
<stop stop-color="#BDF37A"/>
<stop offset="1" stop-color="#DDF37B" stop-opacity="0"/>
</radialGradient>
<linearGradient id="paint2_linear_18_30420" x1="14.6173" y1="30.0183" x2="14.6176" y2="7.87863" gradientUnits="userSpaceOnUse">
<stop offset="0.0431707" stop-color="#EE137A"/>
<stop offset="0.456" stop-color="#ED1452"/>
<stop offset="1" stop-color="#EC098C"/>
</linearGradient>
<radialGradient id="paint3_radial_18_30420" cx="0" cy="0" r="1" gradientUnits="userSpaceOnUse" gradientTransform="translate(10.1875 16.625) rotate(65.9657) scale(15.1921 14.7721)">
<stop offset="0.282017" stop-color="#B32032"/>
<stop offset="0.431424" stop-color="#D0375A"/>
<stop offset="0.621026" stop-color="#E11462"/>
<stop offset="0.793032" stop-color="#E81274"/>
<stop offset="1" stop-color="#D61158"/>
</radialGradient>
<linearGradient id="paint4_linear_18_30420" x1="17.625" y1="11.4375" x2="17.625" y2="15.5" gradientUnits="userSpaceOnUse">
<stop stop-color="#A80E3F"/>
<stop offset="1" stop-color="#A80F3C" stop-opacity="0"/>
</linearGradient>
<radialGradient id="paint5_radial_18_30420" cx="0" cy="0" r="1" gradientUnits="userSpaceOnUse" gradientTransform="translate(20.625 8) rotate(90) scale(7.3125 11.875)">
<stop stop-color="#BAF75B"/>
<stop offset="0.34188" stop-color="#ABDE28"/>
<stop offset="0.815126" stop-color="#739F2E"/>
<stop offset="1" stop-color="#9AAA4C" stop-opacity="0"/>
</radialGradient>
<linearGradient id="paint6_linear_18_30420" x1="17.5625" y1="13.8125" x2="17.5625" y2="8.0625" gradientUnits="userSpaceOnUse">
<stop offset="0.206522" stop-color="#99995C"/>
<stop offset="1" stop-color="#9A995E" stop-opacity="0"/>
</linearGradient>
<radialGradient id="paint7_radial_18_30420" cx="0" cy="0" r="1" gradientUnits="userSpaceOnUse" gradientTransform="translate(22.1179 8.02814) rotate(90) scale(2.32367 3.13453)">
<stop stop-color="#CCFF7A"/>
<stop offset="1" stop-color="#CCFF7B" stop-opacity="0"/>
</radialGradient>
</defs>
</svg>

<svg width="32" height="32" fill="none" xmlns="http://www.w3.org/2000/svg"><path fill-rule="evenodd" clip-rule="evenodd" d="M19.572 2.11c.642 0 1.162.505 1.162 1.054v3.87c0 .549-.52.994-1.162.994-.642 0-1.162-.445-1.162-.995V3.164c0-.55.52-1.055 1.162-1.055Z" fill="url(#a)"/><path fill-rule="evenodd" clip-rule="evenodd" d="M19.572 2.11c.642 0 1.162.505 1.162 1.054v3.87c0 .549-.52.994-1.162.994-.642 0-1.162-.445-1.162-.995V3.164c0-.55.52-1.055 1.162-1.055Z" fill="url(#b)"/><path d="M9.534 24.34a11.867 11.867 0 0 1-4.68 2.13c-1.43.3-1.54 2.3-.15 2.76 4.75 1.56 10.16.85 14.46-2.38 4.29-3.334 6.385-8.55 6.055-13.71-.28-4.45-5.136-6.81-8.706-4.13a5.574 5.574 0 0 0-2.23 4.86c.29 3.93-1.37 7.93-4.75 10.47Z" fill="url(#c)"/><path d="M9.534 24.34a11.867 11.867 0 0 1-4.68 2.13c-1.43.3-1.54 2.3-.15 2.76 4.75 1.56 10.16.85 14.46-2.38 4.29-3.334 6.385-8.55 6.055-13.71-.28-4.45-5.136-6.81-8.706-4.13a5.574 5.574 0 0 0-2.23 4.86c.29 3.93-1.37 7.93-4.75 10.47Z" fill="url(#d)"/><path d="M9.534 24.34a11.867 11.867 0 0 1-4.68 2.13c-1.43.3-1.54 2.3-.15 2.76 4.75 1.56 10.16.85 14.46-2.38 4.29-3.334 6.385-8.55 6.055-13.71-.28-4.45-5.136-6.81-8.706-4.13a5.574 5.574 0 0 0-2.23 4.86c.29 3.93-1.37 7.93-4.75 10.47Z" fill="url(#e)"/><path d="M11.97 10.03c0 1.07.46 2.1 1.26 2.82.762.61 2.024.34 2.723-.123a1.805 1.805 0 0 1 2.04 0c.597.433 2.549.369 3.148 0 .599-.37 1.257-.382 1.992 0 .78.405 2.148.68 2.807.133l.01-.01c.8-.72 1.198-1.747 1.198-2.827 0-2.76-2.015-4.882-4.938-4.882h-5.23c-2.894 0-5.01 2.129-5.01 4.889Z" fill="#94AD47"/><path d="M11.97 10.03c0 1.07.46 2.1 1.26 2.82.762.61 2.024.34 2.723-.123a1.805 1.805 0 0 1 2.04 0c.597.433 2.549.369 3.148 0 .599-.37 1.257-.382 1.992 0 .78.405 2.148.68 2.807.133l.01-.01c.8-.72 1.198-1.747 1.198-2.827 0-2.76-2.015-4.882-4.938-4.882h-5.23c-2.894 0-5.01 2.129-5.01 4.889Z" fill="url(#f)"/><path d="M11.97 10.03c0 1.07.46 2.1 1.26 2.82.762.61 2.024.34 2.723-.123a1.805 1.805 0 0 1 2.04 0c.597.433 2.549.369 3.148 0 .599-.37 1.257-.382 1.992 0 .78.405 2.148.68 2.807.133l.01-.01c.8-.72 1.198-1.747 1.198-2.827 0-2.76-2.015-4.882-4.938-4.882h-5.23c-2.894 0-5.01 2.129-5.01 4.889Z" fill="url(#g)"/><g filter="url(#h)"><path d="M19.047 7.535c.342-1.467 4.205-2.32 5.463-1.528 2.304 1.452-1.366 3.592-2.731 4.203-1.366.611-3.158-.84-2.732-2.675Z" fill="url(#i)"/></g><path d="M0 0h32v32H0z"/><defs><radialGradient id="b" cx="0" cy="0" r="1" gradientUnits="userSpaceOnUse" gradientTransform="matrix(-.0625 .71875 -.67888 -.05903 19.875 2.844)"><stop stop-color="#BDF37A"/><stop offset="1" stop-color="#DDF37B" stop-opacity="0"/></radialGradient><radialGradient id="d" cx="0" cy="0" r="1" gradientUnits="userSpaceOnUse" gradientTransform="matrix(6.1875 13.87497 -13.49139 6.01643 10.188 16.625)"><stop offset=".282" stop-color="#B32032"/><stop offset=".431" stop-color="#D0375A"/><stop offset=".621" stop-color="#E11462"/><stop offset=".793" stop-color="#E81274"/><stop offset="1" stop-color="#D61158"/></radialGradient><radialGradient id="f" cx="0" cy="0" r="1" gradientUnits="userSpaceOnUse" gradientTransform="matrix(0 7.3125 -11.875 0 20.625 8)"><stop stop-color="#BAF75B"/><stop offset=".342" stop-color="#ABDE28"/><stop offset=".815" stop-color="#739F2E"/><stop offset="1" stop-color="#9AAA4C" stop-opacity="0"/></radialGradient><radialGradient id="i" cx="0" cy="0" r="1" gradientUnits="userSpaceOnUse" gradientTransform="matrix(0 2.32367 -3.13453 0 22.118 8.028)"><stop stop-color="#CCFF7A"/><stop offset="1" stop-color="#CCFF7B" stop-opacity="0"/></radialGradient><linearGradient id="a" x1="18.41" y1="5.069" x2="20.734" y2="5.069" gradientUnits="userSpaceOnUse"><stop stop-color="#72B730"/><stop offset=".17" stop-color="#84CB3A"/><stop offset=".341" stop-color="#88D120"/><stop offset=".637" stop-color="#9ADF3B"/><stop offset="1" stop-color="#8CCD24"/></linearGradient><linearGradient id="c" x1="14.617" y1="30.018" x2="14.618" y2="7.879" gradientUnits="userSpaceOnUse"><stop offset=".043" stop-color="#EE137A"/><stop offset=".456" stop-color="#ED1452"/><stop offset="1" stop-color="#EC098C"/></linearGradient><linearGradient id="e" x1="17.625" y1="11.438" x2="17.625" y2="15.5" gradientUnits="userSpaceOnUse"><stop stop-color="#A80E3F"/><stop offset="1" stop-color="#A80F3C" stop-opacity="0"/></linearGradient><linearGradient id="g" x1="17.563" y1="13.813" x2="17.563" y2="8.063" gradientUnits="userSpaceOnUse"><stop offset=".207" stop-color="#99995C"/><stop offset="1" stop-color="#9A995E" stop-opacity="0"/></linearGradient><filter id="h" x="17.983" y="4.704" width="8.269" height="6.647" filterUnits="userSpaceOnUse" color-interpolation-filters="sRGB"><feFlood flood-opacity="0" result="BackgroundImageFix"/><feBlend in="SourceGraphic" in2="BackgroundImageFix" result="shape"/><feGaussianBlur stdDeviation=".5" result="effect1_foregroundBlur_18_30420"/></filter></defs></svg>
